static/Bilder/TextBilder/en/InvestManag.svg

<?xml version="1.0" encoding="UTF-8" standalone="no"?>
<svg
   width="1910"
   height="570"
   overflow="hidden"
   version="1.1"
   id="svg72"
   sodipodi:docname="InvestManag.svg"
   inkscape:version="1.4.2 (f4327f4, 2025-05-13)"
   xmlns:inkscape="http://www.inkscape.org/namespaces/inkscape"
   xmlns:sodipodi="http://sodipodi.sourceforge.net/DTD/sodipodi-0.dtd"
   xmlns="http://www.w3.org/2000/svg"
   xmlns:svg="http://www.w3.org/2000/svg">
  <defs
     id="defs72" />
  <sodipodi:namedview
     id="namedview72"
     pagecolor="#ffffff"
     bordercolor="#000000"
     borderopacity="0.25"
     inkscape:showpageshadow="2"
     inkscape:pageopacity="0.0"
     inkscape:pagecheckerboard="0"
     inkscape:deskcolor="#d1d1d1"
     inkscape:zoom="1.2634021"
     inkscape:cx="549.70625"
     inkscape:cy="354.20237"
     inkscape:window-width="1920"
     inkscape:window-height="1009"
     inkscape:window-x="-8"
     inkscape:window-y="-8"
     inkscape:window-maximized="1"
     inkscape:current-layer="svg72" />
  <g
     transform="matrix(0.4881513,0,0,0.4881513,-68.500477,-290.03806)"
     id="g72"
     style="stroke-width:2.04855">
    <path
       d="M 460.5,796.5 H 817 L 979.5,959 817,1121.5 H 460.5 Z"
       stroke="#017ac0"
       stroke-width="2.34728"
       stroke-miterlimit="8"
       fill="none"
       fill-rule="evenodd"
       id="path1" />
    <path
       d="M 1003.5,796.5 H 1360 L 1522.5,959 1360,1121.5 h -356.5 z"
       stroke="#017ac0"
       stroke-width="2.34728"
       stroke-miterlimit="8"
       fill="none"
       fill-rule="evenodd"
       id="path2" />
    <path
       d="M 1551.5,796.5 H 1909 L 2071.5,959 1909,1121.5 h -357.5 z"
       stroke="#017ac0"
       stroke-width="2.34728"
       stroke-miterlimit="8"
       fill="none"
       fill-rule="evenodd"
       id="path3" />
    <path
       d="M 2097.5,796.5 H 2455 L 2617.5,959 2455,1121.5 h -357.5 z"
       stroke="#017ac0"
       stroke-width="2.34728"
       stroke-miterlimit="8"
       fill="none"
       fill-rule="evenodd"
       id="path4" />
    <path
       d="M 2274.05,796 V 658.5 l 1.14,1.146 H 1181 l 1.15,-1.146 v 115.116 h -2.3 V 657.354 H 2276.34 V 796 Z m -1079.3,-26.967 -13.75,27.5 -13.75,-27.5 z"
       fill="#4472c4"
       id="path5"
       style="stroke-width:2.04855" />
    <path
       d="M 2643.5,796.5 H 3000 L 3162.5,959 3000,1121.5 h -356.5 z"
       stroke="#017ac0"
       stroke-width="2.34728"
       stroke-miterlimit="8"
       fill="none"
       fill-rule="evenodd"
       id="path6" />
    <path
       d="m 979,958 23.28,0.533"
       stroke="#017ac0"
       stroke-width="4.69459"
       stroke-miterlimit="8"
       fill="none"
       fill-rule="evenodd"
       id="path7" />
    <path
       d="m 1522,959 h 28.78"
       stroke="#017ac0"
       stroke-width="4.69459"
       stroke-miterlimit="8"
       fill="none"
       fill-rule="evenodd"
       id="path8" />
    <path
       d="M 0,0 26.0449,0.532677"
       stroke="#017ac0"
       stroke-width="4.69459"
       stroke-miterlimit="8"
       fill="none"
       fill-rule="evenodd"
       transform="matrix(1,0,0,-1,2071,958.533)"
       id="path9" />
    <path
       d="m 2617,958 h 26.04"
       stroke="#017ac0"
       stroke-width="4.69459"
       stroke-miterlimit="8"
       fill="none"
       fill-rule="evenodd"
       id="path10" />
    <path
       d="m 3162,958 h 39.04"
       stroke="#017ac0"
       stroke-width="4.69459"
       stroke-miterlimit="8"
       fill="none"
       fill-rule="evenodd"
       id="path11" />
    <path
       d="M 3201.5,796.5 H 3559 L 3721.5,959 3559,1121.5 h -357.5 z"
       stroke="#017ac0"
       stroke-width="2.34728"
       stroke-miterlimit="8"
       fill="none"
       fill-rule="evenodd"
       id="path12" />
    <path
       d="M 0,-1.14583 H 143.229 V 559.869 H 27.5 v -2.291 h 114.583 l -1.145,1.146 V 0 l 1.145,1.14583 H 0 Z M 32.0833,572.474 4.58333,558.724 32.0833,544.974 Z"
       fill="#4472c4"
       transform="matrix(0,-1,-1,0,3382.72,797.583)"
       id="path13"
       style="stroke-width:2.04855" />
    <path
       d="m 225.5,959 c 0,-17.949 14.551,-32.5 32.5,-32.5 17.949,0 32.5,14.551 32.5,32.5 0,17.949 -14.551,32.5 -32.5,32.5 -17.949,0 -32.5,-14.551 -32.5,-32.5 z"
       stroke="#017ac0"
       stroke-width="9.38916"
       stroke-miterlimit="8"
       fill="#017ac0"
       fill-rule="evenodd"
       id="path14" />
    <path
       d="M 290,958 H 459.443"
       stroke="#4472c4"
       stroke-width="4.69459"
       stroke-miterlimit="8"
       fill="none"
       fill-rule="evenodd"
       id="path15" />
    <path
       d="M 375,1302 H 907.501 L 925,1562 375,1516.34 Z"
       fill="#dae3f3"
       fill-rule="evenodd"
       id="path16"
       style="stroke-width:2.04855" />
    <path
       d="m 3909.5,959 c 0,-17.949 14.55,-32.5 32.5,-32.5 17.95,0 32.5,14.551 32.5,32.5 0,17.949 -14.55,32.5 -32.5,32.5 -17.95,0 -32.5,-14.551 -32.5,-32.5 z"
       stroke="#017ac0"
       stroke-width="9.38916"
       stroke-miterlimit="8"
       fill="none"
       fill-rule="evenodd"
       id="path17" />
    <path
       d="m 3721,958 h 188.44"
       stroke="#4472c4"
       stroke-width="4.69459"
       stroke-miterlimit="8"
       fill="none"
       fill-rule="evenodd"
       id="path18" />
    <path
       d="m 953,1212 h 532.5 l 17.5,259 -550,-45.48 z"
       fill="#dae3f3"
       fill-rule="evenodd"
       id="path19"
       style="stroke-width:2.04855" />
    <path
       d="m 1427,1497 h 583.81 l 19.19,260 -603,-45.66 z"
       fill="#dae3f3"
       fill-rule="evenodd"
       id="path20"
       style="stroke-width:2.04855" />
    <path
       d="m 638,1121 v 181.98"
       stroke="#4472c4"
       stroke-width="4.69459"
       stroke-miterlimit="8"
       fill="none"
       fill-rule="evenodd"
       id="path21" />
    <path
       d="M 0,0 3.60892e-4,90.4873"
       stroke="#4472c4"
       stroke-width="4.69459"
       stroke-miterlimit="8"
       fill="none"
       fill-rule="evenodd"
       transform="matrix(-1,0,0,1,1181,1121)"
       id="path22" />
    <path
       d="m 1730,1121 v 376.35"
       stroke="#4472c4"
       stroke-width="4.69459"
       stroke-miterlimit="8"
       fill="none"
       fill-rule="evenodd"
       id="path23" />
    <path
       d="m 2071,1264 h 471.51 l 15.49,194 -487,-34.07 z"
       fill="#dae3f3"
       fill-rule="evenodd"
       id="path24"
       style="stroke-width:2.04855" />
    <path
       d="m 2608,1402 h 503.46 l 16.54,325 -520,-57.07 z"
       fill="#dae3f3"
       fill-rule="evenodd"
       id="path25"
       style="stroke-width:2.04855" />
    <path
       d="m 2292,1121 v 142.99"
       stroke="#4472c4"
       stroke-width="4.69459"
       stroke-miterlimit="8"
       fill="none"
       fill-rule="evenodd"
       id="path26" />
    <path
       d="m 3156,1238 h 437.62 l 14.38,194 -452,-34.07 z"
       fill="#dae3f3"
       fill-rule="evenodd"
       id="path27"
       style="stroke-width:2.04855" />
    <path
       d="m 2821,1121 v 280.56"
       stroke="#017ac0"
       stroke-width="4.69459"
       stroke-miterlimit="8"
       fill="none"
       fill-rule="evenodd"
       id="path28" />
    <path
       d="m 3380,1121 v 116.98"
       stroke="#017ac0"
       stroke-width="4.69459"
       stroke-miterlimit="8"
       fill="none"
       fill-rule="evenodd"
       id="path29" />
    <text
       style="font-size:44px;font-family:Arial;text-anchor:middle;white-space:pre;stroke-width:2.04855"
       x="675.33698"
       y="968.19202"
       id="text29">Needs analysis</text>
    <text
       style="font-size:44px;font-family:Arial;text-anchor:middle;white-space:pre;stroke-width:2.04855"
       x="1233.41"
       y="970.35999"
       id="text30">Object search</text>
    <text
       style="font-size:44px;font-family:Arial;text-anchor:middle;white-space:pre;stroke-width:2.04855"
       x="1789.98"
       y="974.69702"
       id="text31">Analysis &amp; Evaluation</text>
    <text
       style="font-size:44px;font-family:Arial;text-anchor:middle;white-space:pre;stroke-width:2.04855"
       x="2327.23"
       y="970.35901"
       id="text32">Investment decision</text>
    <text
       style="font-size:44px;font-family:Arial;text-anchor:middle;white-space:pre;stroke-width:2.04855"
       x="2866.71"
       y="970.36102"
       id="text33">Operating phase</text>
    <text
       style="font-size:44px;font-family:Arial;text-anchor:middle;white-space:pre;stroke-width:2.04855"
       transform="translate(21.683607)"
       id="text35"><tspan
         x="3410.3799"
         y="953.013"
         id="tspan33"
         style="stroke-width:2.04855">Search process </tspan><tspan
         x="3410.3799"
         dy="1em"
         id="tspan34"
         style="stroke-width:2.04855">​</tspan><tspan
         id="tspan35"
         style="stroke-width:2.04855">tenant/buyer</tspan></text>
    <text
       style="font-size:44px;font-family:Arial;text-anchor:middle;white-space:pre;stroke-width:2.04855"
       x="1725.39"
       y="636.43201"
       id="text36">Start of new search process if decision against investment</text>
    <text
       style="font-size:44px;font-family:Arial;text-anchor:middle;white-space:pre;stroke-width:2.04855"
       x="3099.8401"
       y="638.60101"
       id="text37">Integration of tenant/buyer</text>
    <text
       style="font-size:37px;font-family:Arial;text-anchor:middle;white-space:pre;stroke-width:2.04855"
       transform="translate(-305.73886,-42.040035)"
       id="text41"><tspan
         x="955.16302"
         y="1430.05"
         id="tspan37"
         style="stroke-width:2.04855">Development of a concrete </tspan><tspan
         x="955.16302"
         dy="1.3em"
         id="tspan38"
         style="stroke-width:2.04855">​</tspan><tspan
         id="tspan39"
         style="stroke-width:2.04855">specification with target return, </tspan><tspan
         x="955.16302"
         dy="1.3em"
         id="tspan40"
         style="stroke-width:2.04855">​</tspan><tspan
         id="tspan41"
         style="stroke-width:2.04855">location and utilization structure</tspan></text>
    <text
       style="font-size:37px;font-family:Arial;text-anchor:middle;white-space:pre;stroke-width:2.04855"
       transform="translate(-259.88644,14.287739)"
       id="text44"><tspan
         x="1480.27"
         y="1293.45"
         id="tspan42"
         style="stroke-width:2.04855">Search for specific objects on </tspan><tspan
         x="1480.27"
         dy="1.3em"
         id="tspan43"
         style="stroke-width:2.04855">​</tspan><tspan
         id="tspan44"
         style="stroke-width:2.04855">the basis of the specifications</tspan></text>
    <text
       style="font-size:37px;font-family:Arial;text-anchor:middle;white-space:pre;stroke-width:2.04855"
       transform="translate(-102.22981,-105.65541)"
       id="text49"><tspan
         x="1833.14"
         y="1677.24"
         id="tspan45"
         style="stroke-width:2.04855">Carrying out due diligence for </tspan><tspan
         x="1833.15"
         dy="1.3em"
         id="tspan46"
         style="stroke-width:2.04855">​</tspan><tspan
         id="tspan47"
         style="stroke-width:2.04855">properties found that meet </tspan><tspan
         x="1833.15"
         dy="1.3em"
         id="tspan48"
         style="stroke-width:2.04855">​</tspan><tspan
         id="tspan49"
         style="stroke-width:2.04855">the investment criteria</tspan></text>
    <text
       style="font-size:37px;font-family:Arial;text-anchor:middle;white-space:pre;stroke-width:2.04855"
       transform="translate(-127.66604,1.91128)"
       id="text52"><tspan
         x="2427.03"
         y="1334.65"
         id="tspan50"
         style="stroke-width:2.04855">Decision for/against </tspan><tspan
         x="2427.02"
         dy="1.3em"
         id="tspan51"
         style="stroke-width:2.04855">​</tspan><tspan
         id="tspan52"
         style="stroke-width:2.04855">investment</tspan></text>
    <text
       style="font-size:37px;font-family:Arial;text-anchor:middle;white-space:pre;stroke-width:2.04855"
       transform="translate(-85.199776,-63.822853)"
       id="text59"><tspan
         x="2950.54"
         y="1549.3101"
         id="tspan53"
         style="stroke-width:2.04855">Transfer of property to </tspan><tspan
         x="2950.54"
         dy="1.3em"
         id="tspan54"
         style="stroke-width:2.04855">​</tspan><tspan
         id="tspan55"
         style="stroke-width:2.04855">operating phase with </tspan><tspan
         x="2950.54"
         dy="1.3em"
         id="tspan56"
         style="stroke-width:2.04855">​</tspan><tspan
         id="tspan57"
         style="stroke-width:2.04855">operating cost optimization/ </tspan><tspan
         x="2950.54"
         dy="1.3em"
         id="tspan58"
         style="stroke-width:2.04855">​</tspan><tspan
         id="tspan59"
         style="stroke-width:2.04855">financial management</tspan></text>
    <text
       style="font-size:37px;font-family:Arial;text-anchor:middle;white-space:pre;stroke-width:2.04855"
       transform="translate(14.911281,-20.455641)"
       id="text62"><tspan
         x="3366.52"
         y="1333.05"
         id="tspan60"
         style="stroke-width:2.04855">Search for </tspan><tspan
         x="3366.52"
         dy="1.3em"
         id="tspan61"
         style="stroke-width:2.04855">​</tspan><tspan
         id="tspan62"
         style="stroke-width:2.04855">tenants/buyers</tspan></text>
    <text
       style="font-size:44px;font-family:Arial;text-anchor:middle;white-space:pre;stroke-width:2.04855"
       transform="translate(-75.892624,-15.178525)"
       id="text67"><tspan
         x="4018.4299"
         y="1057.1"
         id="tspan63"
         style="stroke-width:2.04855">End of </tspan><tspan
         x="4018.4299"
         dy="1em"
         id="tspan64"
         style="stroke-width:2.04855">​</tspan><tspan
         id="tspan65"
         style="stroke-width:2.04855">investment </tspan><tspan
         x="4018.4299"
         dy="1em"
         id="tspan66"
         style="stroke-width:2.04855">​</tspan><tspan
         id="tspan67"
         style="stroke-width:2.04855">process</tspan></text>
    <text
       style="font-size:44px;font-family:Arial;text-anchor:middle;white-space:pre;stroke-width:2.04855"
       transform="translate(229.84624,-8.673443)"
       id="text72"><tspan
         x="33.215"
         y="1041.92"
         id="tspan68"
         style="stroke-width:2.04855">Start of </tspan><tspan
         x="33.215"
         dy="1em"
         id="tspan69"
         style="stroke-width:2.04855">​</tspan><tspan
         id="tspan70"
         style="stroke-width:2.04855">investment </tspan><tspan
         x="33.215"
         dy="1em"
         id="tspan71"
         style="stroke-width:2.04855">​</tspan><tspan
         id="tspan72"
         style="stroke-width:2.04855">process</tspan></text>
  </g>
</svg>

<?xml version="1.0" encoding="utf-8"?>
<svg width="3976" height="1195" xmlns="http://www.w3.org/2000/svg" overflow="hidden">
  <g transform="translate(-109 -562)">
    <path d="M460.5 796.5 817 796.5 979.5 959 817 1121.5 460.5 1121.5Z" stroke="#017AC0" stroke-width="1.14583" stroke-miterlimit="8" fill="none" fill-rule="evenodd"/>
    <path d="M1003.5 796.5 1360 796.5 1522.5 959 1360 1121.5 1003.5 1121.5Z" stroke="#017AC0" stroke-width="1.14583" stroke-miterlimit="8" fill="none" fill-rule="evenodd"/>
    <path d="M1551.5 796.5 1909 796.5 2071.5 959 1909 1121.5 1551.5 1121.5Z" stroke="#017AC0" stroke-width="1.14583" stroke-miterlimit="8" fill="none" fill-rule="evenodd"/>
    <path d="M2097.5 796.5 2455 796.5 2617.5 959 2455 1121.5 2097.5 1121.5Z" stroke="#017AC0" stroke-width="1.14583" stroke-miterlimit="8" fill="none" fill-rule="evenodd"/>
    <path d="M2274.05 796 2274.05 658.5 2275.19 659.646 1181 659.646 1182.15 658.5 1182.15 773.616 1179.85 773.616 1179.85 657.354 2276.34 657.354 2276.34 796ZM1194.75 769.033 1181 796.533 1167.25 769.033Z" fill="#4472C4"/>
    <path d="M2643.5 796.5 3000 796.5 3162.5 959 3000 1121.5 2643.5 1121.5Z" stroke="#017AC0" stroke-width="1.14583" stroke-miterlimit="8" fill="none" fill-rule="evenodd"/>
    <path d="M979 958 1002.28 958.533" stroke="#017AC0" stroke-width="2.29167" stroke-miterlimit="8" fill="none" fill-rule="evenodd"/>
    <path d="M1522 959 1550.78 959" stroke="#017AC0" stroke-width="2.29167" stroke-miterlimit="8" fill="none" fill-rule="evenodd"/>
    <path d="M0 0 26.0449 0.532677" stroke="#017AC0" stroke-width="2.29167" stroke-miterlimit="8" fill="none" fill-rule="evenodd" transform="matrix(1 0 0 -1 2071 958.533)"/>
    <path d="M2617 958 2643.04 958" stroke="#017AC0" stroke-width="2.29167" stroke-miterlimit="8" fill="none" fill-rule="evenodd"/>
    <path d="M3162 958 3201.04 958" stroke="#017AC0" stroke-width="2.29167" stroke-miterlimit="8" fill="none" fill-rule="evenodd"/>
    <path d="M3201.5 796.5 3559 796.5 3721.5 959 3559 1121.5 3201.5 1121.5Z" stroke="#017AC0" stroke-width="1.14583" stroke-miterlimit="8" fill="none" fill-rule="evenodd"/>
    <path d="M0-1.14583 143.229-1.14583 143.229 559.869 27.5 559.869 27.5 557.578 142.083 557.578 140.938 558.724 140.938 0 142.083 1.14583 0 1.14583ZM32.0833 572.474 4.58333 558.724 32.0833 544.974Z" fill="#4472C4" transform="matrix(-1.83697e-16 -1 -1 1.83697e-16 3382.72 797.583)"/>
    <path d="M225.5 959C225.5 941.051 240.051 926.5 258 926.5 275.949 926.5 290.5 941.051 290.5 959 290.5 976.949 275.949 991.5 258 991.5 240.051 991.5 225.5 976.949 225.5 959Z" stroke="#017AC0" stroke-width="4.58333" stroke-miterlimit="8" fill="#017AC0" fill-rule="evenodd"/>
    <path d="M290 958 459.443 958" stroke="#4472C4" stroke-width="2.29167" stroke-miterlimit="8" fill="none" fill-rule="evenodd"/>
    <path d="M375 1302 907.501 1302 925 1562 375 1516.34 375 1302Z" fill="#DAE3F3" fill-rule="evenodd"/>
    <path d="M3909.5 959C3909.5 941.051 3924.05 926.5 3942 926.5 3959.95 926.5 3974.5 941.051 3974.5 959 3974.5 976.949 3959.95 991.5 3942 991.5 3924.05 991.5 3909.5 976.949 3909.5 959Z" stroke="#017AC0" stroke-width="4.58333" stroke-miterlimit="8" fill="none" fill-rule="evenodd"/>
    <path d="M3721 958 3909.44 958" stroke="#4472C4" stroke-width="2.29167" stroke-miterlimit="8" fill="none" fill-rule="evenodd"/>
    <path d="M953 1212 1485.5 1212 1503 1471 953 1425.52 953 1212Z" fill="#DAE3F3" fill-rule="evenodd"/>
    <path d="M1427 1497 2010.81 1497 2030 1757 1427 1711.34 1427 1497Z" fill="#DAE3F3" fill-rule="evenodd"/>
    <path d="M638 1121 638 1302.98" stroke="#4472C4" stroke-width="2.29167" stroke-miterlimit="8" fill="none" fill-rule="evenodd"/>
    <path d="M0 0 0.000360892 90.4873" stroke="#4472C4" stroke-width="2.29167" stroke-miterlimit="8" fill="none" fill-rule="evenodd" transform="matrix(-1 0 0 1 1181 1121)"/>
    <path d="M1730 1121 1730 1497.35" stroke="#4472C4" stroke-width="2.29167" stroke-miterlimit="8" fill="none" fill-rule="evenodd"/>
    <path d="M2071 1264 2542.51 1264 2558 1458 2071 1423.93 2071 1264Z" fill="#DAE3F3" fill-rule="evenodd"/>
    <path d="M2608 1402 3111.46 1402 3128 1727 2608 1669.93 2608 1402Z" fill="#DAE3F3" fill-rule="evenodd"/>
    <path d="M2292 1121 2292 1263.99" stroke="#4472C4" stroke-width="2.29167" stroke-miterlimit="8" fill="none" fill-rule="evenodd"/>
    <path d="M3156 1238 3593.62 1238 3608 1432 3156 1397.93 3156 1238Z" fill="#DAE3F3" fill-rule="evenodd"/>
    <path d="M2821 1121 2821 1401.56" stroke="#017AC0" stroke-width="2.29167" stroke-miterlimit="8" fill="none" fill-rule="evenodd"/>
    <path d="M3380 1121 3380 1237.98" stroke="#017AC0" stroke-width="2.29167" stroke-miterlimit="8" fill="none" fill-rule="evenodd"/>
    <text style="font-family: Arial; font-size: 44px; text-anchor: middle; white-space: pre;" x="675.337" y="968.192">Needs analysis</text>
    <text style="font-family: Arial; font-size: 44px; text-anchor: middle; white-space: pre;" x="1233.41" y="970.36">Object search</text>
    <text style="font-family: Arial; font-size: 44px; text-anchor: middle; white-space: pre;" x="1789.98" y="974.697">Analysis &amp; Evaluation</text>
    <text style="font-family: Arial; font-size: 44px; text-anchor: middle; white-space: pre;" x="2327.23" y="970.359">Investment decision</text>
    <text style="font-family: Arial; font-size: 44px; text-anchor: middle; white-space: pre;" x="2866.71" y="970.361">Operating phase</text>
    <text style="font-family: Arial; font-size: 44px; text-anchor: middle; white-space: pre;" transform="matrix(1, 0, 0, 1, 21.683607, 0)"><tspan x="3410.38" y="953.013">Search process </tspan><tspan x="3410.38" dy="1em">​</tspan><tspan>tenant/buyer</tspan></text>
    <text style="font-family: Arial; font-size: 44px; text-anchor: middle; white-space: pre;" x="1725.39" y="636.432">Start of new search process if decision against investment</text>
    <text style="font-family: Arial; font-size: 44px; text-anchor: middle; white-space: pre;" x="3099.84" y="638.601">Integration of tenant/buyer</text>
    <text style="font-family: Arial; font-size: 37px; text-anchor: middle; white-space: pre;" transform="matrix(1, 0, 0, 1, -305.738861, -42.040035)"><tspan x="955.163" y="1430.05">Development of a concrete </tspan><tspan x="955.163" dy="1.3em">​</tspan><tspan>specification with target return, </tspan><tspan x="955.163" dy="1.3em">​</tspan><tspan>location and utilization structure</tspan></text>
    <text style="font-family: Arial; font-size: 37px; text-anchor: middle; white-space: pre;" transform="matrix(1, 0, 0, 1, -259.886444, 14.287739)"><tspan x="1480.27" y="1293.45">Search for specific objects on </tspan><tspan x="1480.27" dy="1.3em">​</tspan><tspan>the basis of the specifications</tspan></text>
    <text style="font-family: Arial; font-size: 37px; text-anchor: middle; white-space: pre;" transform="matrix(1, 0, 0, 1, -102.229805, -105.655411)"><tspan x="1833.14" y="1677.24">Carrying out due diligence for </tspan><tspan x="1833.15" dy="1.3em">​</tspan><tspan>properties found that meet </tspan><tspan x="1833.15" dy="1.3em">​</tspan><tspan>the investment criteria</tspan></text>
    <text style="font-family: Arial; font-size: 37px; text-anchor: middle; white-space: pre;" transform="matrix(1, 0, 0, 1, -127.666039, 1.91128)"><tspan x="2427.03" y="1334.65">Decision for/against </tspan><tspan x="2427.02" dy="1.3em">​</tspan><tspan>investment</tspan></text>
    <text style="font-family: Arial; font-size: 37px; text-anchor: middle; white-space: pre;" transform="matrix(1, 0, 0, 1, -85.199776, -63.822853)"><tspan x="2950.54" y="1549.31">Transfer of property to </tspan><tspan x="2950.54" dy="1.3em">​</tspan><tspan>operating phase with </tspan><tspan x="2950.54" dy="1.3em">​</tspan><tspan>operating cost optimization/ </tspan><tspan x="2950.54" dy="1.3em">​</tspan><tspan>financial management</tspan></text>
    <text style="font-family: Arial; font-size: 37px; text-anchor: middle; white-space: pre;" transform="matrix(1, 0, 0, 1, 14.911281, -20.455641)"><tspan x="3366.52" y="1333.05">Search for </tspan><tspan x="3366.52" dy="1.3em">​</tspan><tspan>tenants/buyers</tspan></text>
    <text style="font-family: Arial; font-size: 44px; text-anchor: middle; white-space: pre;" transform="matrix(1, 0, 0, 1, -75.892624, -15.178525)"><tspan x="4018.43" y="1057.1">End of </tspan><tspan x="4018.43" dy="1em">​</tspan><tspan>investment </tspan><tspan x="4018.43" dy="1em">​</tspan><tspan>process</tspan></text>
    <text style="font-family: Arial; font-size: 44px; text-anchor: middle; white-space: pre;" transform="matrix(1, 0, 0, 1, 229.846237, -8.673443)"><tspan x="33.215" y="1041.92">Start of </tspan><tspan x="33.215" dy="1em">​</tspan><tspan>investment </tspan><tspan x="33.215" dy="1em">​</tspan><tspan>process</tspan></text>
  </g>
</svg>
